X: 11
T: \`A cheval
N: Derived from Ano3003-A_cheval--Escorial_B.krn
C: Anonymous
%%abc-version 2.0
%%abcx-abcm2ps-target-version 5.9.1 (29 Sep 2008)
%%abc-creator hum2abc beta
%%abcx-conversion-date 2019/02/16 20:18:26
%%abc-edited-by Jesse Rodin
%%abc-edited-by Jesse Rodin 8/14/2013
%%abcx-initial-encoding-date 2013/08/14/
%%humdrum-veritas 2775660230
%%humdrum-veritas-data 2870771760
%%linebreak <none>
%%barnumbers 0
L: 1/4
M: 3/1
Q: 1/2=120
V: 1 clef=treble
V: 2 clef=treble-8
V: 3 clef=treble-8
K: F
[V:1] c2c2c4c2c2 | 
[V:2] z4z4f2f2 | 
[V:3] z12 | 
[V:1] c2c2c4z2A2 | 
[V:2] f4f2f2f2f2 | 
[V:3] z4F2F2F4 | 
[V:1] A4A2A2A4 | 
[V:2] f4z2c2c4 | 
[V:3] F2F2F2F2F4 | 
[V:1] c4B2A2G2A2 | 
[V:2] F4G2F2c4 | 
[V:3] z2f2e2f2e4 | 
[V:1] B2A2GFF3EED | 
[V:2] d2c2B2A2G4 | 
[V:3] f2e2d2c2B3A | 
[V:1] F12 | 
[V:2] F12- | 
[V:3] c12 | 
[V:1] z4z4A4 | 
[V:2] F8F4 | 
[V:3] f12 | 
[V:1] c8c4 | 
[V:2] A8A4 | 
[V:3] e8f4 | 
[V:1] d4=B4B2B2 | 
[V:2] G8G4- | 
[V:3] g8d4 | 
[V:1] =B2B2z4B4 | 
[V:2] G4G2G2G2G2 | 
[V:3] d4g2g2g4 | 
[V:1] A4=B2d2B2AB | 
[V:2] z4G8 | 
[V:3] d2d2d2d2z4 | 
[V:1] c2A2F2G4^F2 | 
[V:2] F4B2c2A4 | 
[V:3] f4d2e2c3B | 
[V:1] G12 | 
[V:2] G4z4c4 | 
[V:3] d4e8 | 
[V:1] z4G4A2A2 | 
[V:2] d2d2e2e2f2f2 | 
[V:3] f4c4z4 | 
[V:1] =B2B2c2c2d4 | 
[V:2] g4e4d4 | 
[V:3] G4c2c2G2G2 | 
[V:1] =B4A4z2c2 | 
[V:2] z2g2f4e4 | 
[V:3] G2G2d4A4 | 
[V:1] =B2d3cc4B2 | 
[V:2] g4e2c2d4 | 
[V:3] G4z2g2f2e2 | 
[V:1] c4z2A2A2A2 | 
[V:2] c4f8 | 
[V:3] g4d8 | 
[V:1] A4z2A2A2A2 | 
[V:2] z2F2F2F2F4 | 
[V:3] f8z2f2 | 
[V:1] c4z2c4B2 | 
[V:2] z2F2F2F2A4 | 
[V:3] f2f2f4z2e2 | 
[V:1] c2B2ABc4A2 | 
[V:2] z2G2F4A2c2 | 
[V:3] e2e2f4z2e2 | 
[V:1] G2B2A2G3FF2- | 
[V:2] B2G2F2c2A2B2 | 
[V:3] d4f2e2c2d2 | 
[V:1] FEEDF8 |]  
[V:2] G4F8 |]  
[V:3] B4c8 |]  



